public/logos/CO.svg

<?xml version="1.0" encoding="UTF-8"?>
<svg xmlns="http://www.w3.org/2000/svg" xmlns:xlink="http://www.w3.org/1999/xlink" width="176pt" height="32.31pt" viewBox="0 0 176 32.31" version="1.1">
<defs>
<clipPath id="clip1">
  <path d="M 27 0 L 61 0 L 61 32.308594 L 27 32.308594 Z M 27 0 "/>
</clipPath>
<clipPath id="clip2">
  <path d="M 0 0 L 31 0 L 31 32.308594 L 0 32.308594 Z M 0 0 "/>
</clipPath>
</defs>
<g id="surface1">
<path style=" stroke:none;fill-rule:nonzero;fill:rgb(14.807129%,29.53186%,62.039185%);fill-opacity:1;" d="M 155.074219 31.777344 L 149.585938 31.777344 L 149.585938 5.535156 L 133.164062 5.535156 L 133.164062 0.535156 L 155.074219 0.535156 "/>
<g clip-path="url(#clip1)" clip-rule="nonzero">
<path style=" stroke:none;fill-rule:nonzero;fill:rgb(14.807129%,29.53186%,62.039185%);fill-opacity:1;" d="M 54.492188 16.246094 L 54.492188 16.152344 C 54.492188 10.085938 50.117188 5.042969 43.878906 5.042969 C 37.667969 5.042969 33.34375 9.996094 33.34375 16.066406 L 33.34375 16.152344 C 33.34375 22.226562 37.714844 27.265625 43.964844 27.265625 C 50.164062 27.265625 54.492188 22.3125 54.492188 16.246094 M 27.574219 16.246094 L 27.574219 16.152344 C 27.574219 7.414062 34.367188 0.00390625 43.964844 0.00390625 C 53.550781 0.00390625 60.25 7.273438 60.25 16.066406 L 60.25 16.152344 C 60.25 24.902344 53.46875 32.308594 43.878906 32.308594 C 34.277344 32.308594 27.574219 25.03125 27.574219 16.246094 "/>
</g>
<path style=" stroke:none;fill-rule:nonzero;fill:rgb(14.807129%,29.53186%,62.039185%);fill-opacity:1;" d="M 76.585938 26.914062 C 80.335938 26.914062 82.613281 25.480469 82.613281 22.625 L 82.613281 22.535156 C 82.613281 19.859375 80.523438 18.339844 76.191406 18.339844 L 67.488281 18.339844 L 67.488281 26.914062 Z M 74.988281 13.703125 C 78.554688 13.703125 80.875 12.316406 80.875 9.464844 L 80.875 9.375 C 80.875 6.871094 78.957031 5.398438 75.386719 5.398438 L 67.488281 5.398438 L 67.488281 13.703125 Z M 62.089844 0.535156 L 76.097656 0.535156 C 79.714844 0.535156 82.441406 1.472656 84.269531 3.308594 C 85.644531 4.683594 86.363281 6.421875 86.363281 8.480469 L 86.363281 8.570312 C 86.363281 12.320312 84.269531 14.375 81.898438 15.535156 C 85.605469 16.777344 88.105469 18.875 88.105469 23.117188 L 88.105469 23.207031 C 88.105469 28.785156 83.503906 31.777344 76.546875 31.777344 L 62.089844 31.777344 "/>
<path style=" stroke:none;fill-rule:nonzero;fill:rgb(14.807129%,29.53186%,62.039185%);fill-opacity:1;" d="M 109.613281 19.371094 L 104.226562 6.871094 L 98.863281 19.371094 Z M 101.761719 0.3125 L 106.855469 0.3125 L 120.597656 31.777344 L 114.792969 31.777344 L 111.628906 24.238281 L 96.855469 24.238281 L 93.648438 31.777344 L 88.019531 31.777344 "/>
<path style=" stroke:none;fill-rule:nonzero;fill:rgb(14.807129%,29.53186%,62.039185%);fill-opacity:1;" d="M 123.144531 0.535156 L 128.628906 0.535156 L 128.628906 26.777344 L 145.058594 26.777344 L 145.058594 31.777344 L 123.144531 31.777344 "/>
<path style=" stroke:none;fill-rule:nonzero;fill:rgb(14.807129%,29.53186%,62.039185%);fill-opacity:1;" d="M 170.988281 5.535156 L 157.011719 5.535156 L 157.011719 0.535156 L 176 0.535156 "/>
<path style=" stroke:none;fill-rule:nonzero;fill:rgb(33.325195%,67.054749%,89.089966%);fill-opacity:1;" d="M 164.089844 12.453125 L 157.011719 12.453125 L 157.011719 7.457031 L 169.097656 7.457031 "/>
<g clip-path="url(#clip2)" clip-rule="nonzero">
<path style=" stroke:none;fill-rule:nonzero;fill:rgb(14.807129%,29.53186%,62.039185%);fill-opacity:1;" d="M 15.777344 5.535156 L 25.996094 5.535156 L 31 0.535156 L 15.84375 0.535156 C 6.535156 0.535156 0 7.683594 0 16.417969 L 0 16.515625 C 0 25.332031 6.664062 32.308594 15.621094 32.308594 C 21 32.308594 24.417969 30.425781 27.457031 27.488281 L 24.617188 23.363281 C 22.03125 25.820312 19.523438 27.355469 15.800781 27.355469 C 9.960938 27.355469 5.664062 22.4375 5.664062 16.417969 L 5.664062 16.335938 C 5.664062 10.371094 9.929688 5.523438 15.769531 5.523438 "/>
</g>
</g>
</svg>

<svg xmlns="http://www.w3.org/2000/svg" width="176pt" height="43.08" viewBox="0 0 176 32.31"><defs><clipPath id="a"><path d="M27 0h34v32.309H27Zm0 0"/></clipPath><clipPath id="b"><path d="M0 0h31v32.309H0Zm0 0"/></clipPath></defs><path d="M155.074 31.777h-5.488V5.535h-16.422v-5h21.91" style="stroke:none;fill-rule:nonzero;fill:#264b9e;fill-opacity:1"/><g clip-path="url(#a)"><path d="M54.492 16.246v-.094c0-6.066-4.375-11.109-10.613-11.109-6.211 0-10.535 4.953-10.535 11.023v.086c0 6.075 4.37 11.114 10.62 11.114 6.2 0 10.528-4.953 10.528-11.02m-26.918 0v-.094c0-8.738 6.793-16.148 16.39-16.148 9.587 0 16.286 7.27 16.286 16.062v.086c0 8.75-6.781 16.157-16.371 16.157-9.602 0-16.305-7.278-16.305-16.063" style="stroke:none;fill-rule:nonzero;fill:#264b9e;fill-opacity:1"/></g><path d="M76.586 26.914c3.75 0 6.027-1.434 6.027-4.289v-.09c0-2.676-2.09-4.195-6.422-4.195h-8.703v8.574Zm-1.598-13.21c3.567 0 5.887-1.388 5.887-4.24v-.089c0-2.504-1.918-3.977-5.488-3.977h-7.899v8.305ZM62.09.534h14.008c3.617 0 6.343.938 8.172 2.774 1.375 1.375 2.093 3.113 2.093 5.171v.09c0 3.75-2.093 5.805-4.465 6.965 3.707 1.242 6.207 3.34 6.207 7.582v.09c0 5.578-4.601 8.57-11.558 8.57H62.09M109.613 19.371l-5.386-12.5-5.364 12.5ZM101.762.313h5.093l13.743 31.464h-5.805l-3.164-7.539H96.855l-3.207 7.54H88.02M123.145.535h5.484v26.242h16.43v5h-21.914M170.988 5.535h-13.976v-5H176" style="stroke:none;fill-rule:nonzero;fill:#264b9e;fill-opacity:1"/><path d="M164.09 12.453h-7.078V7.457h12.086" style="stroke:none;fill-rule:nonzero;fill:#55abe3;fill-opacity:1"/><g clip-path="url(#b)"><path d="M15.777 5.535h10.22l5.003-5H15.844C6.535.535 0 7.684 0 16.418v.098c0 8.816 6.664 15.793 15.621 15.793 5.379 0 8.797-1.883 11.836-4.82l-2.84-4.126c-2.586 2.457-5.094 3.992-8.816 3.992-5.84 0-10.137-4.917-10.137-10.937v-.082c0-5.965 4.266-10.813 10.106-10.813" style="stroke:none;fill-rule:nonzero;fill:#264b9e;fill-opacity:1"/></g></svg>
